_inc/images/systems/logos/pcenginecd.svg

<?xml version="1.0" encoding="UTF-8" standalone="no"?>
<!DOCTYPE svg PUBLIC "-//W3C//DTD SVG 1.1//EN" "http://www.w3.org/Graphics/SVG/1.1/DTD/svg11.dtd">
<svg width="100%" height="100%" viewBox="0 0 634 92" version="1.1" xmlns="http://www.w3.org/2000/svg" xmlns:xlink="http://www.w3.org/1999/xlink" xml:space="preserve" xmlns:serif="http://www.serif.com/" style="fill-rule:evenodd;clip-rule:evenodd;stroke-linejoin:round;stroke-miterlimit:2;">
    <g transform="matrix(1,0,0,1,-823,-1578)">
        <g id="pcenginecd.afdesign" transform="matrix(1,0,0,1,1140,1624.44)">
            <g transform="matrix(1,0,0,1,-320.043,-49.4643)">
                <g transform="matrix(3.19195,0,0,3.19195,-701.425,-142.296)">
                    <g transform="matrix(0.470615,0,0,0.470615,201.977,-39.546)">
                        <path d="M234.54,193.85L258.01,193.85C260.345,193.843 262.65,194.37 264.75,195.39C266.711,196.321 268.522,197.541 270.12,199.01C271.103,199.895 271.967,200.903 272.69,202.01C273.666,203.494 274.181,205.234 274.17,207.01L274.17,211.17C274.175,212.617 273.896,214.05 273.35,215.39C272.934,216.427 272.44,217.429 271.87,218.39C271.7,218.67 271.53,218.96 271.34,219.23C271.102,219.553 271.102,219.997 271.34,220.32C271.55,220.65 271.74,220.98 271.94,221.32C272.493,222.28 272.968,223.283 273.36,224.32C273.873,225.671 274.137,227.105 274.14,228.55L274.14,237.54C274.205,238.621 273.623,239.644 272.66,240.14C271.939,240.559 271.156,240.859 270.34,241.03C268.386,241.49 266.353,241.51 264.39,241.09C263.695,240.941 263.023,240.703 262.39,240.38C261.295,239.893 260.606,238.778 260.66,237.58L260.66,229.26C260.571,228.203 260.209,227.186 259.61,226.31C258.876,225.096 257.549,224.36 256.13,224.38L223.3,224.38C221.68,224.446 220.366,225.76 220.3,227.38L220.3,238.03C220.273,238.705 219.956,239.336 219.43,239.76C218.868,240.214 218.223,240.554 217.53,240.76C215.512,241.405 213.371,241.566 211.28,241.23C210.564,241.15 209.862,240.979 209.19,240.72C208.615,240.514 208.081,240.209 207.61,239.82C207.091,239.385 206.781,238.747 206.76,238.07L206.76,196.36C206.785,196.021 206.849,195.685 206.95,195.36C207.178,194.595 207.83,194.028 208.62,193.91C208.89,193.853 209.165,193.826 209.44,193.83L234.58,193.83L234.54,193.85ZM239.75,212.67L257.37,212.67C258.117,212.689 258.791,212.205 259.01,211.49C259.554,210.076 259.496,208.5 258.85,207.13C258.803,207.029 258.743,206.935 258.67,206.85C258.422,206.474 258.01,206.236 257.56,206.21L222.32,206.21C221.696,206.211 221.122,206.558 220.83,207.11C220.077,208.62 220.106,210.406 220.91,211.89C221.167,212.328 221.624,212.612 222.13,212.65L223.62,212.65L239.75,212.67Z" style="fill:white;fill-rule:nonzero;"/>
                    </g>
                    <g transform="matrix(0.470615,0,0,0.470615,201.977,-39.546)">
                        <path d="M395,194.47L415.3,194.47C416.854,194.436 418.406,194.573 419.93,194.88C422.111,195.323 424.181,196.197 426.02,197.45C427.443,198.428 428.652,199.687 429.57,201.15C430.394,202.409 430.826,203.885 430.81,205.39L430.81,238.01C430.812,238.848 430.446,239.645 429.81,240.19C429.23,240.695 428.548,241.07 427.81,241.29C426.22,241.808 424.528,241.931 422.88,241.65C422.166,241.546 421.467,241.355 420.8,241.08C420.286,240.863 419.807,240.569 419.38,240.21C418.692,239.629 418.288,238.78 418.27,237.88L418.27,210.55C418.27,208.306 416.424,206.46 414.18,206.46L407.16,206.46C406.663,206.45 406.165,206.47 405.67,206.52C404.311,206.656 403.144,207.559 402.67,208.84C402.411,209.455 402.269,210.113 402.25,210.78L402.25,238.07C402.254,238.973 401.807,239.822 401.06,240.33C400.381,240.818 399.608,241.158 398.79,241.33C396.62,241.848 394.35,241.772 392.22,241.11C391.633,240.939 391.079,240.672 390.58,240.32C389.759,239.813 389.27,238.904 389.3,237.94L389.3,209.61C389.283,209.054 389.157,208.507 388.93,208C388.615,207.146 387.836,206.546 386.93,206.46C386.544,206.44 386.156,206.44 385.77,206.46L377.45,206.46C375.852,206.536 374.469,207.624 374.02,209.16C373.823,209.737 373.715,210.341 373.7,210.95L373.7,238.41C373.693,239.027 373.436,239.615 372.99,240.04C372.552,240.468 372.036,240.807 371.47,241.04C370.756,241.353 370.002,241.565 369.23,241.67C367.473,241.959 365.675,241.881 363.95,241.44C363.234,241.26 362.556,240.952 361.95,240.53C361.259,240.041 360.825,239.265 360.77,238.42L360.77,208.16C360.734,205.366 361.535,202.625 363.07,200.29C365.263,196.714 369.165,194.526 373.36,194.52C376.41,194.44 379.46,194.52 382.52,194.52L395,194.52L395,194.47Z" style="fill:white;fill-rule:nonzero;"/>
                    </g>
                    <g transform="matrix(0.470615,0,0,0.470615,201.977,-39.546)">
                        <path d="M316.79,194.75C322.39,194.75 327.99,194.8 333.59,194.75C336.727,194.706 339.824,195.46 342.59,196.94C347.244,199.272 350.933,203.167 353.01,207.94C354.468,211.374 355.062,215.113 354.74,218.83C354.617,221.049 354.211,223.244 353.53,225.36C351.449,232.046 346.27,237.337 339.63,239.56C338.218,240.063 336.729,240.317 335.23,240.31L300.29,240.31C295.424,240.342 290.695,238.688 286.91,235.63C283.576,232.99 281.161,229.363 280.01,225.27C279.368,223.205 279.011,221.062 278.95,218.9L278.95,214.9C279.047,212.172 279.676,209.488 280.8,207C283.16,201.778 287.579,197.758 293,195.9C295.139,195.116 297.402,194.723 299.68,194.74L315.81,194.74L316.79,194.75ZM317.36,228.37L332.36,228.37C334.443,228.379 336.432,227.493 337.82,225.94C338.757,224.914 339.472,223.706 339.92,222.39C340.547,220.547 340.841,218.606 340.79,216.66C340.763,215.773 340.625,214.893 340.38,214.04C339.531,211.065 337.447,208.592 334.66,207.25C333.74,206.753 332.706,206.504 331.66,206.53L302.47,206.53C301.98,206.58 301.47,206.63 300.99,206.73C299.25,207.108 297.632,207.912 296.28,209.07C293.848,210.993 292.485,213.973 292.62,217.07C292.645,220.738 294.405,224.187 297.36,226.36C298.994,227.735 301.086,228.449 303.22,228.36L304.22,228.36L317.36,228.37Z" style="fill:white;fill-rule:nonzero;"/>
                    </g>
                    <g transform="matrix(0.470615,0,0,0.470615,201.977,-39.546)">
                        <path d="M140.17,240.15L117.69,240.15C117.25,240.108 116.817,240.014 116.4,239.87C115.741,239.672 115.248,239.118 115.13,238.44C115.012,237.845 114.928,237.244 114.88,236.64C114.86,236.25 114.86,235.86 114.88,235.47L114.88,200C114.845,199.169 114.905,198.337 115.06,197.52C115.291,196.099 116.466,195.007 117.9,194.88C118.504,194.807 119.112,194.773 119.72,194.78L160.67,194.78C163.841,194.843 166.956,195.626 169.78,197.07C174.271,199.273 177.706,203.175 179.32,207.91C180.117,210.165 180.585,212.522 180.71,214.91C180.835,216.735 180.835,218.565 180.71,220.39C180.526,223.162 179.887,225.885 178.82,228.45C175.741,235.618 168.621,240.258 160.82,240.18C153.933,240.153 147.05,240.143 140.17,240.15ZM145.35,228.8L159.16,228.8C160.275,228.818 161.37,228.497 162.3,227.88C162.811,227.547 163.295,227.176 163.75,226.77C164.493,226.098 165.136,225.324 165.66,224.47C167.577,221.514 168.309,217.941 167.71,214.47C167.455,212.816 166.765,211.259 165.71,209.96C163.941,207.692 161.195,206.395 158.32,206.47L131.35,206.47C129.375,206.533 127.776,208.155 127.74,210.13L127.74,225.1C127.735,225.544 127.755,225.988 127.8,226.43C127.847,227.464 128.596,228.341 129.61,228.55C130.365,228.739 131.143,228.82 131.92,228.79L145.35,228.8Z" style="fill:white;fill-rule:nonzero;"/>
                    </g>
                    <g transform="matrix(0.470615,0,0,0.470615,201.977,-39.546)">
                        <path d="M80.6,195.23L104.6,195.23C105.218,195.239 105.799,195.535 106.17,196.03C106.521,196.464 106.783,196.964 106.94,197.5C107.616,199.569 107.644,201.795 107.02,203.88C106.876,204.42 106.621,204.925 106.27,205.36C105.897,205.851 105.317,206.143 104.7,206.15L62.06,206.15C61.058,206.141 60.069,206.378 59.18,206.84C58.28,207.28 57.454,207.857 56.73,208.55C54.399,210.76 53.014,213.791 52.87,217C52.763,218.833 53.154,220.661 54,222.29C55.236,224.732 57.135,226.778 59.48,228.19C60.898,229.072 62.54,229.531 64.21,229.51L104.81,229.51C105.26,229.522 105.683,229.735 105.96,230.09C106.313,230.523 106.575,231.023 106.73,231.56C107.147,232.943 107.323,234.387 107.25,235.83C107.263,236.831 107.097,237.827 106.76,238.77C106.599,239.181 106.394,239.573 106.15,239.94C105.87,240.365 105.407,240.635 104.9,240.67L57.81,240.67C56.864,240.672 55.927,240.478 55.06,240.1C54.186,239.745 53.351,239.299 52.57,238.77C47.441,235.369 43.574,230.369 41.57,224.55C40.879,222.557 40.501,220.469 40.45,218.36C40.191,212.765 41.905,207.252 45.29,202.79C46.885,200.647 48.862,198.817 51.12,197.39C52.142,196.722 53.239,196.178 54.39,195.77C55.428,195.378 56.53,195.181 57.64,195.19L60.81,195.19L80.6,195.23Z" style="fill:white;fill-rule:nonzero;"/>
                    </g>
                    <g transform="matrix(0.470615,0,0,0.470615,201.977,-39.546)">
                        <path d="M449.27,206.81L439.63,206.81C439.187,206.835 438.743,206.835 438.3,206.81C437.371,206.765 436.62,206.01 436.58,205.08L436.58,198.27C436.599,197.711 436.765,197.166 437.06,196.69C437.485,195.909 438.071,195.227 438.78,194.69C439.399,194.21 440.157,193.944 440.94,193.93C444.43,193.93 447.94,193.49 451.4,193.53L451.57,193.53C452.777,193.599 453.88,192.814 454.21,191.65C454.615,190.541 454.554,189.313 454.04,188.25C453.854,187.91 453.618,187.6 453.34,187.33C453.077,187.052 452.721,186.877 452.34,186.84C451.84,186.84 451.34,186.78 450.85,186.78L439.37,186.78C438.914,186.764 438.504,186.493 438.31,186.08C437.656,184.894 437.615,183.462 438.2,182.24C438.382,181.835 438.76,181.551 439.2,181.49C439.42,181.475 439.64,181.475 439.86,181.49C443.69,181.49 447.51,181.43 451.34,181.42C453.01,181.412 454.655,181.829 456.12,182.63C458.08,183.598 459.606,185.269 460.39,187.31C461.438,189.764 461.09,192.602 459.48,194.73C457.86,197.087 455.315,198.651 452.48,199.03C451.767,199.128 451.049,199.182 450.33,199.19L444.51,199.19C443.938,199.216 443.437,199.589 443.25,200.13C442.969,200.748 443.022,201.469 443.39,202.04C443.57,202.394 443.923,202.63 444.32,202.66L459.95,202.66C460.526,202.637 461.023,203.084 461.06,203.66C461.176,204.322 461.176,204.998 461.06,205.66C461.043,205.768 461.019,205.875 460.99,205.98C460.904,206.427 460.524,206.762 460.07,206.79L458.74,206.79L449.27,206.81Z" style="fill:white;fill-rule:nonzero;"/>
                    </g>
                    <g transform="matrix(0.470615,0,0,0.470615,201.977,-39.546)">
                        <path d="M194.06,211.8C195.165,211.782 196.259,212.029 197.25,212.52C197.854,212.804 198.413,213.174 198.91,213.62C200.074,214.639 200.742,216.113 200.742,217.66C200.742,219.207 200.074,220.681 198.91,221.7C197.967,222.569 196.799,223.158 195.54,223.4C194.12,223.695 192.647,223.594 191.28,223.11C190.335,222.784 189.477,222.247 188.77,221.54C187.698,220.545 187.089,219.147 187.089,217.685C187.089,216.223 187.698,214.825 188.77,213.83C190.175,212.45 192.092,211.715 194.06,211.8Z" style="fill:white;fill-rule:nonzero;"/>
                    </g>
                </g>
            </g>
        </g>
    </g>
</svg>

<svg id="Warstwa_1" data-name="Warstwa 1" xmlns="http://www.w3.org/2000/svg" viewBox="0 0 420.71 60.56"><title>pce-cd</title><path d="M234.54,193.85c7.82,0,15.65,0,23.47,0a15.31,15.31,0,0,1,6.74,1.54,21.66,21.66,0,0,1,5.37,3.62,15.29,15.29,0,0,1,2.57,3,9,9,0,0,1,1.48,5c0,1.39,0,2.78,0,4.16a11.09,11.09,0,0,1-.82,4.22,21.75,21.75,0,0,1-1.48,3c-.17.28-.34.57-.53.84a.92.92,0,0,0,0,1.09c.21.33.4.66.6,1a20.57,20.57,0,0,1,1.42,3,12,12,0,0,1,.78,4.23c0,2.83,0,5.66,0,8.49,0,.17,0,.34,0,.5a2.74,2.74,0,0,1-1.48,2.6,7.8,7.8,0,0,1-2.32.89,13.57,13.57,0,0,1-5.95.06,8.16,8.16,0,0,1-2-.71,2.92,2.92,0,0,1-1.73-2.8c0-2.27,0-4.55,0-6.82,0-.5,0-1,0-1.5a6.14,6.14,0,0,0-1.05-2.95,4,4,0,0,0-3.48-1.93h-31c-.61,0-1.23,0-1.83,0a3.13,3.13,0,0,0-3,3c0,.44,0,.89,0,1.33q0,4.08,0,8.16c0,.39,0,.77,0,1.16a2.34,2.34,0,0,1-.87,1.73,5.53,5.53,0,0,1-1.9,1,13.5,13.5,0,0,1-6.25.47,8.4,8.4,0,0,1-2.09-.51,5.27,5.27,0,0,1-1.58-.9,2.38,2.38,0,0,1-.85-1.75c0-.39,0-.77,0-1.16V197.52c0-.38,0-.77,0-1.16a4.5,4.5,0,0,1,.19-1,2.06,2.06,0,0,1,1.67-1.45,3.74,3.74,0,0,1,.82-.08h25.14Zm5.21,18.82h17.62a1.67,1.67,0,0,0,1.64-1.18,5.55,5.55,0,0,0-.16-4.36,1.21,1.21,0,0,0-.18-.28,1.43,1.43,0,0,0-1.11-.64l-1.49,0H222.32a1.69,1.69,0,0,0-1.49.9,5.18,5.18,0,0,0,.08,4.78,1.55,1.55,0,0,0,1.22.76c.5,0,1,0,1.49,0Z" transform="translate(-40.43 -181.3)" fill="white"/><path d="M395,194.47h20.3a21.11,21.11,0,0,1,4.63.41,16.74,16.74,0,0,1,6.09,2.57,12.65,12.65,0,0,1,3.55,3.7,7.59,7.59,0,0,1,1.24,4.24c0,1.17,0,2.33,0,3.5v27.45c0,.56,0,1.11,0,1.67a2.86,2.86,0,0,1-1,2.18,5.39,5.39,0,0,1-2,1.1,10.32,10.32,0,0,1-4.93.36,8.78,8.78,0,0,1-2.08-.57,5.59,5.59,0,0,1-1.42-.87,3.13,3.13,0,0,1-1.11-2.33c0-.5,0-1,0-1.5V212.09c0-.5,0-1,0-1.5a4.09,4.09,0,0,0-4.11-4.13h-7a12.29,12.29,0,0,0-1.49.06,3.58,3.58,0,0,0-3,2.32,5.4,5.4,0,0,0-.42,1.94q0,.91,0,1.83v25.46a2.72,2.72,0,0,1-1.19,2.26,6,6,0,0,1-2.27,1,12.42,12.42,0,0,1-6.57-.22,5.53,5.53,0,0,1-1.64-.79,2.7,2.7,0,0,1-1.28-2.38c0-.5,0-1,0-1.5v-25q0-.91,0-1.83a4.25,4.25,0,0,0-.37-1.61,2.37,2.37,0,0,0-2-1.54,11.14,11.14,0,0,0-1.16,0h-7.32c-.33,0-.67,0-1,0a3.76,3.76,0,0,0-3.43,2.7,6,6,0,0,0-.32,1.79c0,.56,0,1.11,0,1.67v24.29c0,.5,0,1,0,1.5a2.29,2.29,0,0,1-.71,1.63,4.78,4.78,0,0,1-1.52,1,8.41,8.41,0,0,1-2.24.63,12.88,12.88,0,0,1-5.28-.23,6.1,6.1,0,0,1-2-.91,2.81,2.81,0,0,1-1.18-2.11c0-.33,0-.66,0-1V208.16a14,14,0,0,1,2.3-7.87,12.09,12.09,0,0,1,10.29-5.77c3.05-.08,6.1,0,9.16,0H395Z" transform="translate(-40.43 -181.3)" fill="white"/><path d="M316.79,194.75c5.6,0,11.2.05,16.8,0a18.52,18.52,0,0,1,9,2.19,22.22,22.22,0,0,1,10.42,11,22.83,22.83,0,0,1,1.73,10.89,26,26,0,0,1-1.21,6.53,21.81,21.81,0,0,1-13.9,14.2,12.92,12.92,0,0,1-4.4.75h-3.5c-10.48,0-21,0-31.44,0a21.07,21.07,0,0,1-13.38-4.68,20.18,20.18,0,0,1-6.9-10.36,23.73,23.73,0,0,1-1.06-6.37c0-1.33,0-2.67,0-4A21,21,0,0,1,280.8,207,20.78,20.78,0,0,1,293,195.9a19,19,0,0,1,6.68-1.16c5.38,0,10.75,0,16.13,0Zm.57,33.62h15a7.28,7.28,0,0,0,5.46-2.43,10.07,10.07,0,0,0,2.1-3.55,16.45,16.45,0,0,0,.87-5.73,10.67,10.67,0,0,0-.41-2.62,10.84,10.84,0,0,0-5.72-6.79,6,6,0,0,0-3-.72H303.47c-.33,0-.67,0-1,0-.49.05-1,.1-1.48.2a10.74,10.74,0,0,0-4.71,2.34,9.66,9.66,0,0,0-3.66,8,11.63,11.63,0,0,0,4.74,9.29,8.55,8.55,0,0,0,5.86,2c.33,0,.66,0,1,0Z" transform="translate(-40.43 -181.3)" fill="white"/><path d="M140.17,240.15H119.69c-.66,0-1.33,0-2,0a5.6,5.6,0,0,1-1.29-.28,1.82,1.82,0,0,1-1.27-1.43,15.58,15.58,0,0,1-.25-1.8,11.42,11.42,0,0,1,0-1.17V200a10.87,10.87,0,0,1,.18-2.48,3.16,3.16,0,0,1,2.84-2.64,13.78,13.78,0,0,1,1.82-.1h40.95a20.93,20.93,0,0,1,9.11,2.29,18.85,18.85,0,0,1,9.54,10.84,24.93,24.93,0,0,1,1.39,7,40.08,40.08,0,0,1,0,5.48,25.36,25.36,0,0,1-1.89,8.06,19.38,19.38,0,0,1-18,11.73Q150.49,240.14,140.17,240.15Zm5.18-11.35h5.49c2.77,0,5.55,0,8.32,0a5.52,5.52,0,0,0,3.14-.92,12.09,12.09,0,0,0,1.45-1.11,10.53,10.53,0,0,0,1.91-2.3,14,14,0,0,0,2.05-10,9.44,9.44,0,0,0-2-4.51,9.07,9.07,0,0,0-7.39-3.49q-12.9,0-25.8,0c-.39,0-.78,0-1.17,0a3.73,3.73,0,0,0-3.61,3.66c0,.38,0,.77,0,1.16v13.81a11.73,11.73,0,0,0,.06,1.33,2.27,2.27,0,0,0,1.81,2.12,8.18,8.18,0,0,0,2.31.24Z" transform="translate(-40.43 -181.3)" fill="white"/><path d="M80.6,195.23h24a2,2,0,0,1,1.57.8,4.23,4.23,0,0,1,.77,1.47,10.68,10.68,0,0,1,.08,6.38,4,4,0,0,1-.75,1.48,2,2,0,0,1-1.57.79H63.56c-.5,0-1,0-1.5,0a6.12,6.12,0,0,0-2.88.69,9.72,9.72,0,0,0-2.45,1.71A12.41,12.41,0,0,0,52.87,217,10.19,10.19,0,0,0,54,222.29a14.56,14.56,0,0,0,5.48,5.9,8.75,8.75,0,0,0,4.73,1.32q19.47,0,38.94,0l1.66,0a1.51,1.51,0,0,1,1.15.58,4.15,4.15,0,0,1,.77,1.47,12.59,12.59,0,0,1,.52,4.27,8.41,8.41,0,0,1-.49,2.94,6.19,6.19,0,0,1-.61,1.17,1.63,1.63,0,0,1-1.25.73c-.5,0-1,0-1.5,0H57.81a6.84,6.84,0,0,1-2.75-.57,13.52,13.52,0,0,1-2.49-1.33,28,28,0,0,1-11-14.22,20.38,20.38,0,0,1-1.12-6.19,23.93,23.93,0,0,1,4.84-15.57,21.75,21.75,0,0,1,5.83-5.4,15.33,15.33,0,0,1,3.27-1.62,9,9,0,0,1,3.25-.58c1.06,0,2.11,0,3.17,0Z" transform="translate(-40.43 -181.3)" fill="white"/><path d="M449.27,206.81h-9.64a11.75,11.75,0,0,1-1.33,0,1.81,1.81,0,0,1-1.72-1.73c0-2.27,0-4.54,0-6.81a3.21,3.21,0,0,1,.48-1.58,6.25,6.25,0,0,1,1.72-2,3.63,3.63,0,0,1,2.16-.76c3.49,0,7-.44,10.46-.4h.17a2.59,2.59,0,0,0,2.64-1.88,4.37,4.37,0,0,0-.17-3.4,3.86,3.86,0,0,0-.7-.92,1.59,1.59,0,0,0-1-.49c-.5,0-1-.06-1.49-.06-3.39,0-6.77,0-10.15,0-.44,0-.89,0-1.33,0a1.22,1.22,0,0,1-1.06-.7,4.2,4.2,0,0,1-.11-3.84,1.29,1.29,0,0,1,1-.75,4.87,4.87,0,0,1,.66,0c3.83,0,7.65-.06,11.48-.07a9.87,9.87,0,0,1,4.78,1.21,8.7,8.7,0,0,1,4.27,4.68,7.45,7.45,0,0,1-.91,7.42,10.12,10.12,0,0,1-7,4.3,17.14,17.14,0,0,1-2.15.16c-1.5,0-3,0-4.49,0-.45,0-.89,0-1.33,0a1.4,1.4,0,0,0-1.26.94,2,2,0,0,0,.14,1.91,1.14,1.14,0,0,0,.93.62c.5,0,1,0,1.49,0,4.22,0,8.43,0,12.64,0,.5,0,1,0,1.5,0a1.07,1.07,0,0,1,1.11,1,5.78,5.78,0,0,1,0,2,3,3,0,0,1-.07.32,1,1,0,0,1-.92.81c-.44,0-.88,0-1.33,0Z" transform="translate(-40.43 -181.3)" fill="white"/><path d="M194.06,211.8a6.93,6.93,0,0,1,3.19.72,6.85,6.85,0,0,1,1.66,1.1,5.37,5.37,0,0,1,0,8.08,6.9,6.9,0,0,1-3.37,1.7,7.93,7.93,0,0,1-4.26-.29,6.58,6.58,0,0,1-2.51-1.57,5.26,5.26,0,0,1,0-7.71A7.11,7.11,0,0,1,194.06,211.8Z" transform="translate(-40.43 -181.3)" fill="white"/></svg>
